X:52
T:Casse D'Amour, or Lovers' Hunt
M:2/4
L:1/8
B:Thompson's Compleat Collection of 200 Favourite Country Dances (London, 1765)
Z:Transcribed and edited by Flynn Titford-Mock, 2007
Z:abc's:AK/Fiddler's Companion
K:G
DG "tr"G2 | EG "tr"G2 | DGEG | DG "tr"G2 | cABG | AFGE | DFAc | BG "tr"G2 :|
|: dB "tr"B2 | GD "tr"D2 | EFGA | GE "tr"E2 | gfed | cBAG | FABc | BG "tr"G2 :|

